X:1
T:I love, alas, I love thee - Morley
T:#
%%score [ 1 { 2 | 3 } 4 5 ]
L:1/8
Q:1/4=120
M:2/2
K:Bb
V:1 treble nm="Soprano" snm="S"
V:2 treble nm="Alto I" snm="A"
V:3 treble 
V:4 treble-8 nm="Tenor" snm="T"
V:5 bass nm="Bass" snm="B"
V:1
"^I love, alas, I love thee"!mf! f8 |:"^repeat""^p" d3 f e2 d2 | c4 B4 | z4 z2 c2 | f3 e d2 f2 | %5
w: I|love, a- las, I|love thee,|I|love, a- las, I|
 edd (c/B/)"^Thomas Morley \n(1557-1603)" c4 |[M:2/2] B4 z4 | z4 z2 B2 | B2 c2 (c2 =B2) | %9
w: love, a- las, I * love|thee,|my|dain- ty dar\- *|
 c4 G2 c2- | cB B4 A2 ||1 B4!p! f4 :|2 B8 || z8 | z2!f! B2 B3 _A | G2 E2 G3 _A | B2 e2 d4 | %17
w: ling, my dain\-|* ty dar\- *|ling. I|ling.||Come kiss me|then, come kiss me|then, come kiss|
 c4 z2!mp! e2- | e2 B2 d4 | c2 c4 B2 | B4 B2!mf! e2 | d3 d c2 B2 | A4 B2!p! d2 | e3 d c2 c2 | %24
w: me, A\-|* ma- ryl-|lis, A- ma-|ryl- lis, More|love- ly than sweet|Phyl- lis, more|love- ly than sweet|
 B4 B2!f! B2 | e3 d c2 B2 | c4 d2 f2 | g3 f d2 g2 | f8 |!>(! d8!>)! | z8 | z2!p! B2 B3 _A | %32
w: Phyl- lis, more|love- ly than sweet|Phyl- lis, more|love- ly than sweet|Phyl-|lis.||Come kiss me|
 G2 E2 G3 _A | B2 e2 d4 | c4 z2!mp! e2- | e2 B2 d4 | c2 c4 B2 | B4 B2!mf! e2 | d3 d c2 B2 | %39
w: then, come kiss me|then, come kiss|me, A\-|* ma- ryl-|lis, A- ma-|ryl- lis, More|love- ly than sweet|
 A4 B2!p! d2 | e3 d c2 c2 | B4 B2!f! B2 | e3 d c2 B2 | c4 d2 f2 | %44
w: Phyl- lis, more|love- ly than sweet|Phyl- lis, more|love- ly than sweet|Phyl- lis, more|
[Q:1/4=117] g3[Q:1/4=115] f[Q:1/4=114] d2[Q:1/4=110] g2[Q:1/4=112] | %45
w: love- ly than sweet|
[Q:1/4=108] f8[Q:1/4=105][Q:1/4=102] |[Q:1/4=100] !fermata!d8 |] %47
w: Phyl-|lis.|
V:2
 z4!mf! F4 |:"^repeat""^p" B3 A G2 B2 | A4 B4 | z8 | z2 F2 B3 A | G2 B2 A4 |[M:2/2] B4 z4 | %7
w: I|love, a- las, I|love thee,||I love, a-|las, I love|thee,|
 z4 z2 F2 | G2 G2 G4 | G4 z2 G2 | G2 F2 F4 ||1 D4 z2!p! F2 :|2 D2!f! F2 F3 E || D2 B,2 B4 | B,8 | %15
w: my|dain- ty dar-|ling, my|dain- ty dar-|ling. I|ling. Come kiss me|then, come kiss|me,|
 z2 B2 B3 _A | G2 G2 F4 | F2!mp! _A4 E2 | G4 F2 F2- | F2 C2 E4 | B,4 z2!mf! B2 | B3 B _A2 F2 | %22
w: come kiss me|then, come kiss|me, A- ma-|ryl- lis, A\-|* ma- ryl-|is, More|love- ly than sweet|
 F4 F2!p! B2 | B3 B G2 _A2 | F4 G2!f! G2 | B3 B A2 B2 | A4 B2 B2 | G3 _A B2 G2 | (A2 B4 A2) | %29
w: Phyl- lis, more|love- ly than sweet|Phyl- lis, more|love- ly than sweet|Phyl- lis, more|love- ly than sweet|Phyl\- * *|
 B2!p! F2 F3 E | D2 B,2 B4 | B,8 | z2 B2 B3 _A | G2 G2 F4 | F2!mp! _A4 E2 | G4 F2 F2- | F2 C2 E4 | %37
w: lis. Come kiss me|then, come kiss|me,|come kiss me|then, come kiss|me, A- ma-|ryl- lis, A\-|* ma- ryl-|
 B,4 z2!mf! B2 | B3 B _A2 F2 | F4 F2!p! B2 | B3 B G2 _A2 | F4 G2!f! G2 | B3 B A2 B2 | A4 B2 B2 | %44
w: lis, More|love- ly than sweet|Phyl- lis, more|love- ly than sweet|Phyl- lis, more|love- ly than sweet|Phyl- lis, more|
 G3 _A B2 G2 | (A2 B4 A2) | !fermata!B8 |] %47
w: love- ly than sweet|Phyl\- * *|lis.|
V:3
 z8 |: z4 z2!mf!"^repeat""^p" B,2 | F6 F2 | E2 D2 C4 | D4 z4 | z2 B,2 F4- |[M:2/2] F2 F2 E2 D2 | %7
w: |I|love, a-|las, I love|thee,|I love,|* a- las, I|
 C4 D2 D2 | E2 E2 D4 | =E4 z2 _E2 | E2 D2 C4 ||1!>(! B,8!>)! :|2"^ling." B,8 || z2!f! F2 F3 F | %14
w: love thee, my|dain- ty dar-|ling, my|dain- ty dar-|ling.||Come kiss me|
 G2 G2 F4 | E4 z4 | z2!mp! B4 F2 | (_A3 B c4) | B8 | z2 _A4 G2 | F4 G2!mf! G2 |"^\" F3 G E2 D2 | %22
w: then, come kiss|me,|A- ma-|ryl\- * *|lis,|A- ma-|ryl- lis, More|love- ly than sweet|
 C4 B,2!p! F2 | G3 F E2 E2 | D4 E2!f! E2 | G3 F F2 F2 | F4 F2 F2 | B3 _A GD (E2 | C2 B,2 F4) | %29
w: Phyl- lis, more|love- ly than sweet|Phyl- lis, more|love- ly than sweet|Phyl- lis, more|love- ly than sweet Phyl\-||
!>(! F4!>)! z4 | z2!p! F2 F3 F | G2 G2 F4 | E4 z4 | z2!mp! B4 F2 | (_A3 B c4) | B8 | z2 _A4 G2 | %37
w: lis.|Come kiss me|then, come kiss|me,|A- ma-|ryl\- * *|lis,|A- ma-|
 F4 G2!mf! G2 | F3 G E2 D2 | C4 B,2!p! F2 | G3 F E2 E2 | D4 E2!f! E2 | G3 F F2 F2 | F4 F2 F2 | %44
w: ryl- lis, More|love- ly than sweet|Phyl- lis, more|love- ly than sweet|Phyl- lis, more|love- ly than sweet|Phyl- lis, more|
 B3 _A GD (E2 | C2 B,2 F4) | !fermata!F8 |] %47
w: love- ly than sweet Phyl\-||\-lis.|
V:4
 z8 |: z8 | z2!mf!"^repeat""^p" c2 d3 c | B2 B2 A4 | B4 z4 | z4 z2 c2 | %6
w: ||I love, a-|las, I love|thee,|I|
[M:2/2][K:treble-8] d3 c B2 B2 | A4 B2 B2 | G2 G2 G4 |"^ling," G4 z2 c2 | G2 B2 (c2 F2) ||1 %11
w: love, a- las, I|love thee, my|dain- ty dar-|* my|dain- ty dar\- *|
!>(! F8!>)! :|2 F4 z2!f! f2 || f3 e d2 B2 | e4 d4 | z4 z2 B2 | B3 c d2 B2 | f4 c4 | z2!mp! B4 F2 | %19
w: ling.|ling. Come|kiss me then, come|kiss me,|come|kiss me then, come|kiss me,|A- ma-|
 (_A3 B cd e2- | e2 d2) e2!mf! B2 | B3 B c2 (de) | f4 d2!p! B2 | e3 B c2 _A2 | B4 E2!f! B2 | %25
w: ryl\- * * * *|* * lis, More|love- ly than sweet *|Phyl- lis, more|love- ly than sweet|Phyl- lis, more|
 B3 B c2 d2 | c4 B2 d2 | e3 c B2 B2 | (f2 d2 c4) |!>(!!>(! B4!>)!!>)! z2!p! f2 | f3 e d2 B2 | %31
w: love- ly than sweet|Phyl- lis, more|love- ly than sweet|Phyl\- * *|lis. Come|kiss me then, come|
 e4 d4 | z4 z2 B2 | B3 c d2 B2 | f4 c4 | z2!mp! B4 F2 | (_A3 B cd e2- | e2 d2) e2!mf! B2 | %38
w: kiss me,|come|kiss me then, come|kiss me,|A- ma-|ryl\- * * * *|* * lis, More|
 B3 B c2 (de) | f4 d2!p! B2 | e3 B c2 _A2 | B4 E2!f! B2 | B3 B c2 d2 | c4 B2 d2 | e3 c B2 B2 | %45
w: love- ly than sweet *|Phyl- lis, more|love- ly than sweet|Phyl- lis, more|love- ly than sweet|Phyl- lis, more|love- ly than sweet|
 (f2 d2 c4) | !fermata!B8 |] %47
w: Phyl\- * *|lis.|
V:5
 z8 |: z8 | z2!mf!"^repeat""^p" F,2 B,3 A, | G,2 B,2 F,4 | B,,4 z4 | z4 z2 F,2 | %6
w: ||I love, a-|las, I love|thee,|I|
[M:2/2] B,3 A, G,2 B,2 | F,4 B,,2 B,,2 | E,2 C,2 G,4 | C,4 z2 C,2 | E,2 B,,2 F,4 ||1 %11
w: love, a- las, I|love thee, my|dain ty dar-|ling, my|dain- ty dar-|
!>(! B,,8!>)! :|2 B,,8 || z2!f! B,2 B,3 _A, | G,2 E,2 B,4 | E,2 E,2 E,3 F, | G,2 E,2 B,4 | %17
w: ling.|ling.|Come kiss me|then, come kiss|me, come kiss me|then, come kiss|
 F,2!mp! F,4 C,2 | E,4 B,,4 | z8 | z4 z2!mf! E,2 | B,3 G, _A,2 B,2 | F,4 B,,4 | z8 | z4 z2!f! E,2 | %25
w: me, A- ma-|ryl- lis,||More|love- ly than sweet|Phyl- lis||more|
 E,3 B,, F,2 B,,2 | F,4 B,,2 B,2 | E,3 F, G,2 E,2 | F,8 |!>(! B,,8!>)! | z2!p! B,2 B,3 _A, | %31
w: love- ly than sweet|Phyl- lis, more|love- ly than sweet|Phyl-|lis.|Come kiss me|
 G,2 E,2 B,4 | E,2 E,2 E,3 F, | G,2 E,2 B,4 | F,2!mp! F,4 C,2 | E,4 B,,4 | z8 | z4 z2!mf! E,2 | %38
w: then, come kiss|me, come kiss me|then, come kiss|me, A- ma-|ryl- lis,||More|
 B,3 G, _A,2 B,2 | F,4 B,,4 | z8 | z4 z2!f! E,2 | E,3 B,, F,2 B,,2 | F,4 B,,2 B,2 | %44
w: love- ly than sweet|Phyl- lis,||more|love- ly than sweet|Phyl- lis, more|
 E,3 F, G,2 E,2 | F,8 |"^J" !fermata!B,,8 |] %47
w: love- ly than sweet|Phyl-|lis.|

